X:120
T: Denis Enright's
S: M. Mulvihill
Z: B.Black
R: slide
M: 12/8
L: 1/8
K: D
Bcd A2 F A3 A3 | B2 F A2 F E3 E3 |
Bcd A2 F A3 A3 | dcB A2 F D3-D3 :|
f2 e d2 f a3 a2 f | g2 f e2 f g3 g2 e |
f2 e d2 f a3 a3 | efg f2 e d3-d3 :|
